source/images/icons/icon-editorial/ampoule.svg

<?xml version="1.0" encoding="UTF-8"?>
<svg width="80px" height="80px" viewBox="0 0 80 80" version="1.1" xmlns="http://www.w3.org/2000/svg" xmlns:xlink="http://www.w3.org/1999/xlink">
    <!-- Generator: Sketch 55.2 (78181) - https://sketchapp.com -->
    <title>Illustrative Icons/Ampoule</title>
    <desc>Created with Sketch.</desc>
    <g id="Illustrative-Icons/Ampoule" stroke="none" stroke-width="1" fill="none" fill-rule="evenodd">
        <path d="M48.4783334,32.5683334 L45.6083334,33.9416667 L40.68,31.425 C40.2082541,31.1872857 39.651746,31.1872857 39.18,31.425 L34.1316667,33.9483334 L27.7566667,30.8516667 C27.2207683,30.5914583 26.5867582,30.6369141 26.0934619,30.9709115 C25.6001656,31.3049089 25.3225265,31.8767057 25.3651286,32.4709115 C25.4077307,33.0651174 25.7641016,33.5914583 26.3,33.8516667 L33.4133334,37.3083334 C33.8777831,37.5371888 34.422217,37.5371888 34.8866667,37.3083334 L39.9166667,34.795 L44.8283334,37.295 C45.2905786,37.5312784 45.8365252,37.5386727 46.305,37.315 L49.9233334,35.5816667 C50.6923269,35.1527195 50.994971,34.1995864 50.6142935,33.4055892 C50.233616,32.6115921 49.3009745,32.2507098 48.485,32.5816667 L48.4783334,32.5683334 Z M54.0616667,8.83333334 C47.2716667,5.16666667 40.5616667,5 40.2766667,5 L39.68,5 C39.3983334,5 32.68,5.16666667 25.895,8.83333334 C19.5616667,12.26 12,19.47 12,34.355 C12,41.4433334 15.125,47.9866667 21.0366667,53.2766667 C23.432473,55.4113934 26.097317,57.2234425 28.9633334,58.6666667 L28.9633334,65.0816667 C28.9633334,66.0021413 29.7095254,66.7483334 30.63,66.7483334 L49.3266667,66.7483334 C50.2471413,66.7483334 50.9933334,66.0021413 50.9933334,65.0816667 L50.9933334,58.6650001 C53.8593206,57.2217264 56.5241584,55.4096814 58.9200001,53.2750001 C64.8316667,47.9850001 67.9566667,41.4416667 67.9566667,34.3533334 C67.9566667,19.4683334 60.4000001,12.26 54.0616667,8.83333334 Z M56.7716667,50.7250001 C54.3562553,52.8991961 51.629471,54.7001994 48.6816667,56.0683334 C48.0620958,56.3275796 47.6586684,56.9333777 47.6583334,57.6050001 L47.6583334,63.4150001 L32.2966667,63.4150001 L32.2966667,57.6050001 C32.2968952,56.9341837 31.8949309,56.3286101 31.2766667,56.0683334 C28.32817,54.6998319 25.6008095,52.8982572 23.185,50.7233334 C17.9783333,46.0316667 15.3333333,40.5233334 15.3333333,34.355 C15.3333333,23.77 19.385,16.1883333 27.3766667,11.8216667 C33.345,8.56 39.445,8.33833334 39.73,8.33 L40.23,8.33 C40.535,8.33833334 46.625,8.565 52.5833334,11.8216667 C60.5750001,16.1883333 64.6266667,23.77 64.6266667,34.355 C64.6233334,40.5233334 61.9783334,46.0316667 56.7716667,50.7250001 Z M48.4666667,70.0583334 L31.165,70.0583334 C30.2445254,70.0583334 29.4983334,70.8045255 29.4983334,71.7250001 C29.4983334,72.6454747 30.2445254,73.3916668 31.165,73.3916668 L38.3116667,73.3916668 C38.3116667,73.3916668 38.3116667,73.4066668 38.3116667,73.4150001 C38.3116667,74.3354747 39.0578588,75.0816668 39.9783334,75.0816668 C40.898808,75.0816668 41.645,74.3354747 41.645,73.4150001 C41.645,73.4150001 41.645,73.4000001 41.645,73.3916668 L48.4683334,73.3916668 C49.388808,73.3916668 50.135,72.6454747 50.135,71.7250001 C50.135,70.8045255 49.388808,70.0583334 48.4683334,70.0583334 L48.4666667,70.0583334 Z M53.2766667,33.64 C54.1971413,33.64 54.9433334,32.893808 54.9433334,31.9733334 C54.9433334,31.0528588 54.1971413,30.3066667 53.2766667,30.3066667 C52.3561921,30.3066667 51.61,31.0528588 51.61,31.9733334 C51.61,32.893808 52.3561921,33.64 53.2766667,33.64 Z" id="Shape-color" fill="#ADB5BD"></path>
    </g>
</svg>

<svg width="80" height="80">
    <title>
        Illustrative Icons/Ampoule
    </title>
    <path d="M48.478 32.568l-2.87 1.374-4.928-2.517a1.667 1.667 0 0 0-1.5 0l-5.048 2.523-6.375-3.096a1.667 1.667 0 0 0-1.457 3l7.113 3.456a1.667 1.667 0 0 0 1.474 0l5.03-2.513 4.911 2.5a1.667 1.667 0 0 0 1.477.02l3.618-1.733a1.667 1.667 0 0 0-1.438-3l-.007-.014zm5.584-23.735C47.272 5.167 40.562 5 40.277 5h-.597c-.282 0-7 .167-13.785 3.833C19.562 12.26 12 19.47 12 34.355c0 7.088 3.125 13.632 9.037 18.922a36.783 36.783 0 0 0 7.926 5.39v6.415c0 .92.747 1.666 1.667 1.666h18.697c.92 0 1.666-.746 1.666-1.666v-6.417a36.788 36.788 0 0 0 7.927-5.39c5.912-5.29 9.037-11.833 9.037-18.922 0-14.885-7.557-22.093-13.895-25.52zm2.71 41.892a32.617 32.617 0 0 1-8.09 5.343c-.62.26-1.023.865-1.024 1.537v5.81H32.297v-5.81c0-.67-.402-1.276-1.02-1.537a32.617 32.617 0 0 1-8.092-5.345c-5.207-4.691-7.852-10.2-7.852-16.368 0-10.585 4.052-18.167 12.044-22.533C33.345 8.56 39.445 8.338 39.73 8.33h.5c.305.008 6.395.235 12.353 3.492 7.992 4.366 12.044 11.948 12.044 22.533-.004 6.168-2.649 11.677-7.855 16.37zm-8.305 19.333H31.165a1.667 1.667 0 0 0 0 3.334h7.147v.023a1.667 1.667 0 0 0 3.333 0v-.023h6.823a1.667 1.667 0 0 0 0-3.334h-.001zm4.81-36.418a1.667 1.667 0 1 0 0-3.333 1.667 1.667 0 0 0 0 3.333z" fill="#ADB5BD" fill-rule="evenodd"/>
</svg>
